X:1
T:6 Lieder, Op.25
T:Das Paradies
T:6. Das Paradies
T:Josephine Lang
T:Sechs Lieder, Op.25
T:Friedrich Rückert
T:OpenScore (CC0)
T:OpenScore (CC0)
T:OpenScore (CC0)
C:Josephine Lang
Z:Friedrich Rückert
Z:OpenScore (CC0)
%%score ( 1 2 ) { ( 3 4 ) | ( 5 6 ) }
L:1/8
Q:1/4=55
M:2/4
K:E
V:1 treble nm="Voice"
V:2 treble 
V:3 treble nm="Pianoforte."
V:4 treble 
V:5 bass 
V:6 bass 
V:1
"^Sehr langsam und ausdrucksvoll" z4 | z4 | z4 | z4 | z4 | z4 | z4 | z2 z!p! B, |:!p! G2 F2 | %9
w: |||||||1.  Im|Pa- ra-|
w: ||||||||2.  Pa- ra-|
w: ||||||||3.  steht des|
 E3 D | C2 D2 | E2 z F |!p!!<(!"^cresc." G2 e2 |!f! d3!<)!!>(! c | c3!>)!!p! d | B2 z B | %16
w: die- se|muss ein|Fluss der|ew'- gen|Lie- be|rin- *|gen! und|
w: die- se|muss ein|Hauch der|Schmer- zen-|stil- lung|we- *|hen! und|
w: Frie- dens|küh- ler|Baum, ge-|pflanzt auf|grü- nen|Räu- *|men, und|
!<(! B3!<)! =d | (c2 B) z/ B/ |!<(! (B2 =d)!<)!!mf!!>(! d | c!>)! z!p! B2 |"^cresc."!<(! A3 G | %21
w: je- de|Sehn- * suchts-|thrä- * ne|muss sein|ei- ne|
w: je- des|Leid _ und|dei- * nes|auch, muss|auf- ge-|
w: drun- ter|muss _ ein|stil- * ler|Traum von|Ruh' und|
 (F2 e)!<)! e |!f!!>(! (d2 c2)!>)! |!p! B2 z A |!f! G2 G3/2 F/ | (E2"^dim." G) F | E2 (D2 | %27
w: Per- * le|drin- *|nen, muss|sein ei- ne|Per- * le|drin- *|
w: löst _ ver-|ge- *|hen, muss|auf _ ge-|löst _ ver-|ge- *|
w: Glück _ sich|träu- *|men, von|Ruh' _ und|Glück _ sich|träu- *|
!p! E4) | z4 | z4 | z4 | z4 | z4 | z4 | z4 |1,2 z2 z B, :|2 z4 || !fermata!z4 |] %38
w: nen!||||||||2.  Im|||
w: hen!||||||||3.  Da|||
w: men.|||||||||||
V:2
 x4 | x4 | x4 | x4 | x4 | x4 | x4 | x4 |: x4 | x4 | x4 | x4 | x4 | x4 | x4 | x4 | x4 | x4 | x4 | %19
 x4 | x4 | x4 | x4 | x4 | x2 G2 | x4 | x4 | x4 | x4 | x4 | x4 | x4 | x4 | x4 | x4 |1,2 x4 :|2 x4 || %37
 x4 |] %38
V:3
!f! (g2 f2 | e2 d2 |!>(! c2 d2 | e2!>)!!p! c2) | F4 |"_dim." B4 | %6
!p! E2[I:staff +1] (3G,B,[I:staff -1]E | (3G-E-B, [G,EG]2 |: G2 F2 | E3 D | C2 D2 | E2 F2 | %12
!p!"_cresc."!<(! G2 e2!<)! |!f! d2!>(! c2 | =B2!>)!!p! ^A2 | B4 |!p!!<(! B4!<)! | B4 | %18
!p!"_cresc." B4 |!mp! B4 | A2 G2 |!<(!"_cresc." F2!<)! =e2 |!f!!>(! d2 c2!>)! |!p! B3!p! =A | %24
!f! G2 G>F | E2"_dim." (3GxF | E2 (D2 |!p! E4) | g2 f2 | e3 d |!p!!<(! c2!mf! d2!<)! | e2 c2 | %32
"_dim." F4 | B4 |!p! E2 (3G,B,E |1,2 (3GEB, G,2 :|2 (3GEB, G,2 || !fermata![G,B,EG]4 |] %38
V:4
 (3GBe (3FBd | (3EGB (3DGB | (3CEA (3DAB | (3EGB (3CEF | (3F,B,E (3F,B,E | (3=A,DF (3A,DF | x4 | %7
 x4 |: x4 | x4 | x4 | x4 |[I:staff +1] (3G,B,[I:staff -1]E (3EGc | (3DG^B (3CEG | %14
 (3=B,=EF (3^A,EF | (3B,DF (3B,DF | (3B,^^C^E (3B,=DF | (3B,=DG (3B,DF | (3B,=D^E (3B,DF | %19
 (3B,CG (3B,C^E | (3A,CF (3G,C^E |[I:staff +1] (3F,A,C[I:staff -1] (3=EFc | (3DFB (3CF^A | %23
 (3B,DF (3B,D[I:staff +1]=A, | x4 | x4 | x4 | x4 |[I:staff -1] (3GBe (3FBd | (3EGB (3EG[DB] | %30
 (3CEA (3DAB | (3EGB (3CEF | x4 | (3A,DF (3A,DF | x4 |1,2 x4 :|2 x4 || x4 |] %38
V:5
"^legato" [E,,,E,,]2 [F,,,F,,]2 | [G,,,G,,]2 [E,,,E,,]2 | [A,,,A,,]2 [F,,,F,,]2 | %3
 [G,,,G,,]2 [^A,,,^A,,]2 | [B,,,B,,]4 | [B,,,B,,]4 | (3E,,B,,E,- E,2- | [E,,B,,E,-]2 (3E,E,B,, |: %8
 (3G,B,E (3F,B,D | (3E,G,B, (3E,G,D, | (3C,E,A, (3D,A,B, | (3E,G,B, (3F,B,D | [E,,E,]2 [C,,C,]2 | %13
 [D,,D,]2 [E,,E,]2 | [F,,F,]4 | [B,,,B,,]2!p! =A,2 | G,2 F,2 | ^E,2!p! =A,2 | G,2 F,2 | ^E,2 C,2 | %20
 F,,2 G,,2 | [A,,,A,,]2 [^A,,,^A,,]2 | [B,,,B,,]2 [C,,C,]2 | [D,,D,]2 [B,,,B,,]2 | %24
 (3G,^B,D (3G,B,F, | (3E,G,C (3G,[=A,C]F, | (3E,G,B, (3D,A,B, | %27
 (3E,G,B,!<(![I:staff -1] (3EGB!<)! |!f![I:staff +1] [E,,,E,,]2 [F,,,F,,]2 | %29
!>(! [G,,,G,,]2 [E,,,E,,]2!>)! |!p! [A,,,A,,]2 [F,,,F,,]2 | [G,,,G,,]2 [A,,,A,,]2 | %32
 (3F,B,E (3F,B,E | [B,,,B,,]4 | (3E,,-B,,-E,- [E,,B,,E,]2- |1,2 %35
 [E,,B,,E,]2- (3((([E,,B,,E,]E,B,, :|2 [E,,B,,E,]2-))) (3[E,,B,,E,]E,B,, || !fermata![E,,B,,E,]4 |] %38
V:6
 x4 | x4 | x4 | x4 | x4 | x4 | x4 | x4 |: E,,2 F,,2 | G,,2 E,,2 | [A,,,A,,]2 [F,,,F,,]2 | %11
 E,,2 [D,,D,]2 | x4 | x4 | x4 | x4 | x4 | x4 | x4 | x4 | x4 | x4 | x4 | x4 | %24
 [^B,,,^B,,]2 [G,,,G,,]2 | [C,,C,]2 =A,,2 | B,,2 B,,,2 | E,,4 | x4 | x4 | x4 | x4 | [B,,,B,,]4- | %33
 x4 | x4 |1,2 x4 :|2 x4 || x4 |] %38

